src/main/resources/cards/fronts/spades_4.svg

<?xml version="1.0" encoding="UTF-8" standalone="no"?>
<!-- Created with Inkscape (http://www.inkscape.org/) -->

<svg
   xmlns:dc="http://purl.org/dc/elements/1.1/"
   xmlns:cc="http://creativecommons.org/ns#"
   xmlns:rdf="http://www.w3.org/1999/02/22-rdf-syntax-ns#"
   xmlns:svg="http://www.w3.org/2000/svg"
   xmlns="http://www.w3.org/2000/svg"
   xmlns:sodipodi="http://sodipodi.sourceforge.net/DTD/sodipodi-0.dtd"
   xmlns:inkscape="http://www.inkscape.org/namespaces/inkscape"
   width="234"
   height="333.00003"
   id="svg2"
   version="1.1"
   inkscape:version="0.92.4 (5da689c313, 2019-01-14)"
   sodipodi:docname="spades_4.svg"
   inkscape:export-filename="C:\Users\fowle\OneDrive\Projects\Playing-Cards\fronts\png-096-dpi\spades_4.png"
   inkscape:export-xdpi="96"
   inkscape:export-ydpi="96">
  <title
     id="title897">Four of Spades Playing Card</title>
  <defs
     id="defs4" />
  <sodipodi:namedview
     id="base"
     pagecolor="#ffffff"
     bordercolor="#666666"
     borderopacity="1.0"
     inkscape:pageopacity="0.0"
     inkscape:pageshadow="2"
     inkscape:zoom="2.1916676"
     inkscape:cx="109.9177"
     inkscape:cy="166.48677"
     inkscape:document-units="px"
     inkscape:current-layer="layer1"
     showgrid="false"
     inkscape:showpageshadow="false"
     showguides="true"
     inkscape:guide-bbox="true"
     inkscape:snap-global="true"
     inkscape:window-width="1456"
     inkscape:window-height="976"
     inkscape:window-x="445"
     inkscape:window-y="0"
     inkscape:window-maximized="0"
     fit-margin-top="0"
     fit-margin-left="0"
     fit-margin-right="0"
     fit-margin-bottom="0"
     showborder="false">
    <inkscape:grid
       type="xygrid"
       id="grid3767"
       empspacing="5"
       visible="true"
       enabled="true"
       snapvisiblegridlinesonly="true"
       originx="0"
       originy="5.1666068e-06" />
  </sodipodi:namedview>
  <metadata
     id="metadata7">
    <rdf:RDF>
      <cc:Work
         rdf:about="">
        <dc:format>image/svg+xml</dc:format>
        <dc:type
           rdf:resource="http://purl.org/dc/dcmitype/StillImage" />
        <dc:title>Four of Spades Playing Card</dc:title>
        <cc:license
           rdf:resource="http://creativecommons.org/publicdomain/zero/1.0/" />
        <dc:date>2020-05-05</dc:date>
        <dc:creator>
          <cc:Agent>
            <dc:title>Daniel S. Fowler</dc:title>
          </cc:Agent>
        </dc:creator>
        <dc:rights>
          <cc:Agent>
            <dc:title>Public Domain</dc:title>
          </cc:Agent>
        </dc:rights>
        <dc:publisher>
          <cc:Agent>
            <dc:title>https://tekeye.uk</dc:title>
          </cc:Agent>
        </dc:publisher>
        <dc:language>en-GB</dc:language>
        <dc:subject>
          <rdf:Bag>
            <rdf:li>four; spades; playing; card; black; white</rdf:li>
          </rdf:Bag>
        </dc:subject>
        <dc:description>A four of spades playing card.</dc:description>
      </cc:Work>
      <cc:License
         rdf:about="http://creativecommons.org/publicdomain/zero/1.0/">
        <cc:permits
           rdf:resource="http://creativecommons.org/ns#Reproduction" />
        <cc:permits
           rdf:resource="http://creativecommons.org/ns#Distribution" />
        <cc:permits
           rdf:resource="http://creativecommons.org/ns#DerivativeWorks" />
      </cc:License>
    </rdf:RDF>
  </metadata>
  <g
     inkscape:label="Layer 1"
     inkscape:groupmode="layer"
     id="layer1"
     transform="translate(0,-719.36216)">
    <g
       id="g919">
      <rect
         rx="8.9191856"
         ry="8.9457436"
         y="719.74011"
         x="0.37795275"
         height="332.24411"
         width="233.24409"
         id="rect4266"
         style="fill:#ffffff;fill-opacity:1;stroke:#808080;stroke-width:0.75590551;stroke-linecap:butt;stroke-linejoin:miter;stroke-miterlimit:4;stroke-dasharray:none;stroke-opacity:1" />
      <g
         transform="matrix(0.07348588,0,0,0.07370838,-248.01731,933.60062)"
         id="g4233"
         style="fill:none;stroke:#000000;stroke-width:3.18132639;stroke-opacity:1" />
      <g
         clip-path="none"
         style="fill:none;stroke:#000000;stroke-width:3.18132639;stroke-opacity:1"
         id="g4211"
         transform="matrix(0.07348588,0,0,0.07370838,-248.01728,933.60062)" />
      <g
         transform="matrix(0.07348588,0,0,0.07370838,-248.01731,933.60062)"
         id="g4227"
         style="fill:none;stroke:#000000;stroke-width:3.18132639;stroke-opacity:1" />
      <path
         sodipodi:nodetypes="cccccccccccccccc"
         inkscape:connector-curvature="0"
         id="path2985-3-11"
         d="m 12.898825,780.70209 c 0,-0.55605 -0.03079,-0.95768 -0.03079,-1.51377 1.149566,0 2.395148,0 3.544708,0 0,-1.3218 0,-1.41528 0,-2.73712 -2.243931,0.0723 -4.67246,0.23894 -6.7739019,-0.687 -1.6266179,-0.89273 -2.075448,-2.97087 -1.7474947,-4.67934 0.2807048,-1.92755 1.3522742,-3.6393 2.7501936,-4.95764 1.819108,-1.94577 4.139071,-3.2593 6.561151,-4.31616 2.472354,1.07475 4.843466,2.43125 6.685643,4.42831 1.659299,1.55933 2.764852,3.76316 2.730888,6.0706 0.03599,1.6655 -0.995685,3.42548 -2.697384,3.78891 -1.903705,0.52719 -3.830472,0.43365 -5.784745,0.35232 0,1.32184 0,1.41532 0,2.73712 1.14956,0 2.203119,0 3.352688,0 0,0.55609 0.03079,0.95772 0.03079,1.51377 -2.632285,-0.0186 -5.778625,-0.0186 -8.621752,0 z"
         style="fill:#000000;stroke:none;stroke-width:1" />
      <path
         sodipodi:nodetypes="cccccccccccccccc"
         inkscape:connector-curvature="0"
         id="path2985-3-11-7"
         d="m 212.48766,991.02222 c 0,0.55606 -0.0308,0.95768 -0.0308,1.51377 1.14955,0 2.39513,0 3.54471,0 0,1.3218 0,1.41528 0,2.73712 -2.24393,-0.0723 -4.67248,-0.23894 -6.77391,0.687 -1.62662,0.89273 -2.07544,2.97087 -1.7475,4.67939 0.28071,1.9275 1.35228,3.6392 2.75018,4.9576 1.81912,1.9458 4.13909,3.2593 6.56118,4.3161 2.47235,-1.0747 4.84345,-2.4312 6.68563,-4.4283 1.65931,-1.5593 2.76487,-3.7631 2.73088,-6.07056 0.036,-1.6655 -0.99569,-3.42548 -2.69737,-3.78891 -1.90372,-0.52719 -3.83047,-0.43365 -5.78475,-0.35232 0,-1.32184 0,-1.41532 0,-2.73712 1.14955,0 2.20314,0 3.35269,0 0,-0.55609 0.0307,-0.95771 0.0307,-1.51377 -2.63231,0.0186 -5.77863,0.0186 -8.62177,0 z"
         style="fill:#000000;stroke:none;stroke-width:1" />
      <path
         sodipodi:nodetypes="cccccccccccccccc"
         inkscape:connector-curvature="0"
         id="path2985-3-3"
         d="m 45.70946,814.07624 c 0,-1.66823 -0.09238,-2.87307 -0.09238,-4.5413 3.448704,0 7.185441,0 10.634123,0 0,-3.96545 0,-4.24592 0,-8.2114 -6.731793,0.2169 -14.01738,0.71685 -20.321702,-2.06095 -4.879854,-2.67821 -6.226348,-8.91266 -5.242485,-14.03808 0.842118,-5.78261 4.056821,-10.91785 8.250581,-14.87291 5.457325,-5.83729 12.417214,-9.77784 19.683448,-12.94844 7.417061,3.22422 14.530399,7.29373 20.056933,13.28492 4.977887,4.67796 8.294558,11.2895 8.192664,18.21177 0.107967,4.99649 -2.987067,10.27644 -8.092154,11.36674 -5.711113,1.58155 -11.491414,1.30096 -17.35423,1.05695 0,3.96548 0,4.24595 0,8.2114 3.448679,0 6.609354,0 10.058058,0 0,1.66823 0.0924,2.87307 0.0924,4.5413 -7.896858,-0.0556 -17.335871,-0.0556 -25.865256,0 z"
         style="fill:#000000;stroke:none;stroke-width:1" />
      <path
         sodipodi:nodetypes="cccccccccccccccc"
         inkscape:connector-curvature="0"
         id="path2985-3-3-5"
         d="m 162.45012,814.07624 c 0,-1.66823 -0.0924,-2.87307 -0.0924,-4.5413 3.44871,0 7.18544,0 10.63413,0 0,-3.96545 0,-4.24592 0,-8.2114 -6.7318,0.2169 -14.01738,0.71685 -20.3217,-2.06095 -4.87986,-2.67821 -6.22636,-8.91266 -5.24249,-14.03808 0.84212,-5.78261 4.05682,-10.91785 8.25058,-14.87291 5.45733,-5.83729 12.41722,-9.77784 19.68345,-12.94844 7.41706,3.22422 14.5304,7.29373 20.05693,13.28492 4.97789,4.67796 8.29456,11.2895 8.19267,18.21177 0.10796,4.99649 -2.98707,10.27644 -8.09216,11.36674 -5.71111,1.58155 -11.49141,1.30096 -17.35423,1.05695 0,3.96548 0,4.24595 0,8.2114 3.44868,0 6.60936,0 10.05806,0 0,1.66823 0.0924,2.87307 0.0924,4.5413 -7.89686,-0.0556 -17.33587,-0.0556 -25.86526,0 z"
         style="fill:#000000;stroke:none;stroke-width:1" />
      <path
         sodipodi:nodetypes="cccccccccccccccc"
         inkscape:connector-curvature="0"
         id="path2985-3-38-2"
         d="m 45.70946,957.64807 c 0,1.66823 -0.09238,2.87307 -0.09238,4.54131 3.448704,0 7.185441,0 10.634123,0 0,3.96548 0,4.24591 0,8.21139 -6.731793,-0.2169 -14.01738,-0.71685 -20.321702,2.06098 -4.879854,2.67818 -6.226348,8.91263 -5.242485,14.03805 0.842118,5.78261 4.056821,10.91788 8.250581,14.8729 5.457325,5.8373 12.417214,9.7779 19.683448,12.9485 7.417061,-3.2242 14.530399,-7.2937 20.056933,-13.285 4.977887,-4.67793 8.294558,-11.28947 8.192664,-18.21174 0.107967,-4.99646 -2.987067,-10.27644 -8.092154,-11.3667 -5.711113,-1.58159 -11.491414,-1.301 -17.35423,-1.05699 0,-3.96548 0,-4.24591 0,-8.21139 3.448679,0 6.609354,0 10.058058,0 0,-1.66824 0.0924,-2.87308 0.0924,-4.54131 -7.896858,0.0556 -17.335871,0.0556 -25.865256,0 z"
         style="fill:#000000;stroke:none;stroke-width:1" />
      <path
         sodipodi:nodetypes="cccccccccccccccc"
         inkscape:connector-curvature="0"
         id="path2985-3-38-2-3"
         d="m 162.45012,957.64807 c 0,1.66824 -0.0924,2.87308 -0.0924,4.54131 3.44871,0 7.18544,0 10.63412,0 0,3.96548 0,4.24592 0,8.2114 -6.73179,-0.2169 -14.01738,-0.71685 -20.3217,2.06098 -4.87985,2.67818 -6.22635,8.91263 -5.24248,14.03805 0.84212,5.78261 4.05682,10.91788 8.25058,14.87289 5.45732,5.8373 12.41721,9.7779 19.68345,12.9485 7.41706,-3.2242 14.53039,-7.2937 20.05693,-13.285 4.97789,-4.67792 8.29456,-11.28946 8.19266,-18.21174 0.10797,-4.99645 -2.98706,-10.27643 -8.09215,-11.3667 -5.71111,-1.58159 -11.49142,-1.30099 -17.35423,-1.05698 0,-3.96548 0,-4.24592 0,-8.2114 3.44868,0 6.60935,0 10.05806,0 0,-1.66823 0.0924,-2.87307 0.0924,-4.54131 -7.89685,0.0556 -17.33587,0.0556 -25.86525,0 z"
         style="fill:#000000;stroke:none;stroke-width:1" />
      <g
         id="text3755-5"
         style="font-style:normal;font-variant:normal;font-weight:bold;font-stretch:normal;font-size:3.77201176px;line-height:0%;font-family:'Levenim MT';-inkscape-font-specification:'Sans Bold';letter-spacing:0px;word-spacing:0px;fill:#000000;fill-opacity:1;stroke:none;stroke-width:1"
         transform="scale(0.9367271,1.0675468)"
         aria-label="4">
        <path
           id="path899"
           style="font-size:37.69855499px;line-height:1.25;stroke-width:1"
           d="m 28.418244,706.77169 q 0,0.38656 -0.14726,0.75471 -0.331335,0.18407 -0.699485,0.18407 H 15.753885 q -1.362154,0 -1.362154,-1.38056 0,-0.22089 0.03682,-0.77311 0.03681,-0.55223 0.03681,-0.84675 0,-0.64426 0.276112,-0.82834 0.202483,-0.12885 0.901967,-0.12885 h 4.601875 v -2.83475 H 9.9187087 q -1.6014522,0 -1.6014522,-1.49101 0,-0.2577 0.055223,-0.93878 0.055222,-0.69949 0.055222,-1.10445 0,-0.62586 0.7178924,-1.56464 l 10.6395332,-13.9897 q 0.497003,-0.66267 1.25171,-0.66267 h 2.42979 q 0.865152,0 0.865152,0.95719 v 15.02052 q 0.66267,0 1.509415,-0.0368 0.865153,-0.0368 1.10445,-0.0368 0.994005,0 1.233302,0.497 0.239298,0.4786 0.239298,2.39298 0,0.34974 -0.05522,0.53382 -0.110445,0.42337 -0.846745,0.42337 h -3.184497 v 2.83475 q 0.681078,0 1.54623,-0.0368 0.865153,-0.0368 1.086042,-0.0368 1.049228,0 1.270118,0.53382 0.184075,0.44178 0.184075,2.55864 z m -8.099299,-19.69602 q -1.012413,1.54623 -7.473444,10.0689 h 7.399814 q 0,-0.9756 -0.03682,-3.35016 -0.05522,-2.15368 -0.03682,-3.36858 0.01841,-1.84075 0.14726,-3.35016 z" />
      </g>
      <g
         id="text3755-2-28"
         style="font-style:normal;font-variant:normal;font-weight:bold;font-stretch:normal;font-size:3.77201176px;line-height:0%;font-family:'Levenim MT';-inkscape-font-specification:'Sans Bold';letter-spacing:0px;word-spacing:0px;fill:#000000;fill-opacity:1;stroke:none;stroke-width:1"
         transform="scale(-0.9367271,-1.0675468)"
         aria-label="4">
        <path
           id="path902"
           style="font-size:37.69855499px;line-height:1.25;stroke-width:1"
           d="m -221.38771,-952.85044 q 0,0.38656 -0.14726,0.75471 -0.33134,0.18407 -0.69949,0.18407 h -11.81761 q -1.36215,0 -1.36215,-1.38056 0,-0.22089 0.0368,-0.77311 0.0368,-0.55223 0.0368,-0.84675 0,-0.64426 0.27611,-0.82834 0.20248,-0.12885 0.90197,-0.12885 h 4.60187 v -2.83475 h -10.32661 q -1.60145,0 -1.60145,-1.49101 0,-0.25771 0.0552,-0.93878 0.0552,-0.69949 0.0552,-1.10445 0,-0.62586 0.71789,-1.56464 l 10.63953,-13.9897 q 0.49701,-0.66267 1.25171,-0.66267 h 2.42979 q 0.86515,0 0.86515,0.95719 v 15.02052 q 0.66267,0 1.50942,-0.0368 0.86515,-0.0368 1.10445,-0.0368 0.994,0 1.2333,0.497 0.2393,0.4786 0.2393,2.39298 0,0.34974 -0.0552,0.53381 -0.11045,0.42338 -0.84675,0.42338 h -3.1845 v 2.83475 q 0.68108,0 1.54623,-0.0368 0.86516,-0.0368 1.08605,-0.0368 1.04922,0 1.27011,0.53382 0.18408,0.44178 0.18408,2.55864 z m -8.0993,-19.69602 q -1.01241,1.54623 -7.47344,10.0689 h 7.39981 q 0,-0.9756 -0.0368,-3.35017 -0.0552,-2.15367 -0.0368,-3.36857 0.0184,-1.84075 0.14726,-3.35016 z" />
      </g>
    </g>
  </g>
</svg>

<svg width="234" height="333.00003" xmlns="http://www.w3.org/2000/svg">
    <g id="layer1" transform="matrix(1 0 0 1 0 -719.3622)">
        <g id="g919">
            <path id="rect4266" fill="#ffffff" stroke="#808080" stroke-width="0.7559055" d="M 9.297138 719.7401 L 224.70288 719.7401 C 229.6288 719.7401 233.62206 723.74524 233.62206 728.68585 L 233.62206 1043.0385 C 233.62207 1045.411 232.68237 1047.6864 231.0097 1049.3641 C 229.33702 1051.0417 227.06839 1051.9843 224.70288 1051.9843 L 9.297138 1051.9843 C 6.9316134 1051.9843 4.662975 1051.0417 2.9903018 1049.3641 C 1.3176281 1047.6864 0.3779376 1045.411 0.37795275 1043.0385 L 0.37795275 728.68585 C 0.37795484 723.74524 4.3712096 719.7401 9.297138 719.7401 Z"/>
            <g id="g4233" transform="matrix(0.07348588 0 0 0.07370838 -248.0173 933.60065)"/>
            <g id="g4211" transform="matrix(0.07348588 0 0 0.07370838 -248.01726 933.60065)"/>
            <g id="g4227" transform="matrix(0.07348588 0 0 0.07370838 -248.0173 933.60065)"/>
            <path id="path2985-3-11" fill="#000000" stroke="none" d="M 12.898825 780.7021 C 12.898825 780.14606 12.868036 779.7444 12.868036 779.1883 C 14.017601 779.1883 15.263182 779.1883 16.412743 779.1883 C 16.412743 777.8665 16.412743 777.77295 16.412743 776.4512 C 14.168812 776.52356 11.740283 776.6902 9.638841 775.7642 C 8.012223 774.87146 7.563393 772.7933 7.8913465 771.08484 C 8.172051 769.1573 9.243621 767.44556 10.64154 766.1272 C 12.460648 764.18146 14.78061 762.868 17.20269 761.81104 C 19.675045 762.8858 22.046156 764.2423 23.888336 766.2394 C 25.547632 767.7987 26.653187 770.00256 26.619223 772.31 C 26.655212 773.97546 25.623537 775.7355 23.921839 776.0989 C 22.018133 776.6261 20.091366 776.53253 18.137093 776.4512 C 18.137093 777.77295 18.137093 777.8665 18.137093 779.1883 C 19.286654 779.1883 20.340212 779.1883 21.489779 779.1883 C 21.489779 779.7444 21.52057 780.14606 21.52057 780.7021 C 18.888287 780.68353 15.741945 780.68353 12.898819 780.7021 Z"/>
            <path id="path2985-3-11-7" fill="#000000" stroke="none" d="M 212.48766 991.0222 C 212.48766 991.57825 212.45686 991.9799 212.45686 992.536 C 213.60641 992.536 214.85199 992.536 216.00157 992.536 C 216.00157 993.8578 216.00157 993.95135 216.00157 995.27313 C 213.75764 995.2008 211.32909 995.0342 209.22765 995.9601 C 207.60104 996.85284 207.15224 998.931 207.48016 1000.6395 C 207.76085 1002.567 208.83244 1004.2787 210.23035 1005.5971 C 212.04945 1007.5429 214.36943 1008.8563 216.7915 1009.9132 C 219.26387 1008.8385 221.63496 1007.482 223.47717 1005.4849 C 225.13646 1003.9256 226.24203 1001.7218 226.20804 999.4143 C 226.24403 997.74884 225.21234 995.98883 223.51067 995.6254 C 221.60693 995.09827 219.68019 995.1918 217.7259 995.27313 C 217.7259 993.95135 217.7259 993.8578 217.7259 992.536 C 218.87546 992.536 219.92905 992.536 221.07858 992.536 C 221.07858 991.9799 221.10928 991.57825 221.10928 991.0222 C 218.47699 991.0408 215.33067 991.0408 212.48753 991.0222 Z"/>
            <path id="path2985-3-3" fill="#000000" stroke="none" d="M 45.70946 814.07623 C 45.70946 812.408 45.61708 811.2032 45.61708 809.5349 C 49.065784 809.5349 52.80252 809.5349 56.2512 809.5349 C 56.2512 805.5695 56.2512 805.289 56.2512 801.3236 C 49.519413 801.5405 42.23382 802.0404 35.9295 799.2626 C 31.049646 796.58435 29.703152 790.3499 30.687014 785.2245 C 31.529135 779.44196 34.743835 774.30664 38.937595 770.3516 C 44.39492 764.5143 51.354813 760.5737 58.621044 757.40314 C 66.03811 760.6274 73.15144 764.6969 78.67798 770.6881 C 83.65587 775.366 86.97254 781.9776 86.87064 788.89984 C 86.978615 793.89636 83.883575 799.1763 78.77849 800.26654 C 73.067375 801.84814 67.28707 801.56757 61.424263 801.3236 C 61.424263 805.289 61.424263 805.5695 61.424263 809.5349 C 64.87294 809.5349 68.033615 809.5349 71.482315 809.5349 C 71.482315 811.2032 71.574715 812.408 71.574715 814.07623 C 63.677856 814.0206 54.23885 814.0206 45.70946 814.07623 Z"/>
            <path id="path2985-3-3-5" fill="#000000" stroke="none" d="M 162.45012 814.07623 C 162.45012 812.408 162.35773 811.2032 162.35773 809.5349 C 165.80643 809.5349 169.54317 809.5349 172.99185 809.5349 C 172.99185 805.5695 172.99185 805.289 172.99185 801.3236 C 166.26006 801.5405 158.97447 802.0404 152.67015 799.2626 C 147.79028 796.58435 146.44379 790.3499 147.42766 785.2245 C 148.26978 779.44196 151.48448 774.30664 155.67824 770.3516 C 161.13557 764.5143 168.09546 760.5737 175.3617 757.40314 C 182.77876 760.6274 189.89209 764.6969 195.41862 770.6881 C 200.39651 775.366 203.71318 781.9776 203.6113 788.89984 C 203.71925 793.89636 200.62424 799.1763 195.51913 800.26654 C 189.808 801.84814 184.02773 801.56757 178.1649 801.3236 C 178.1649 805.289 178.1649 805.5695 178.1649 809.5349 C 181.61359 809.5349 184.77426 809.5349 188.22296 809.5349 C 188.22296 811.2032 188.31537 812.408 188.31537 814.07623 C 180.4185 814.0206 170.97949 814.0206 162.4501 814.07623 Z"/>
            <path id="path2985-3-38-2" fill="#000000" stroke="none" d="M 45.70946 957.6481 C 45.70946 959.3163 45.61708 960.5211 45.61708 962.1894 C 49.065784 962.1894 52.80252 962.1894 56.2512 962.1894 C 56.2512 966.1548 56.2512 966.4353 56.2512 970.40076 C 49.519413 970.1839 42.23382 969.6839 35.9295 972.46173 C 31.049646 975.13995 29.703152 981.3744 30.687014 986.4998 C 31.529135 992.28235 34.743835 997.4177 38.937595 1001.37274 C 44.39492 1007.21 51.354813 1011.1506 58.621044 1014.3212 C 66.03811 1011.0969 73.15144 1007.02747 78.67798 1001.0362 C 83.65587 996.35834 86.97254 989.7467 86.87064 982.82446 C 86.978615 977.828 83.883575 972.54803 78.77849 971.45776 C 73.067375 969.8762 67.28707 970.1568 61.424263 970.40076 C 61.424263 966.4353 61.424263 966.1548 61.424263 962.1894 C 64.87294 962.1894 68.033615 962.1894 71.482315 962.1894 C 71.482315 960.5211 71.574715 959.3163 71.574715 957.6481 C 63.677856 957.7037 54.23885 957.7037 45.70946 957.6481 Z"/>
            <path id="path2985-3-38-2-3" fill="#000000" stroke="none" d="M 162.45012 957.6481 C 162.45012 959.3163 162.35773 960.5212 162.35773 962.1894 C 165.80643 962.1894 169.54317 962.1894 172.99184 962.1894 C 172.99184 966.1548 172.99184 966.4353 172.99184 970.40076 C 166.26006 970.1839 158.97446 969.6839 152.67014 972.46173 C 147.79028 975.13995 146.44379 981.3744 147.42766 986.4998 C 148.26978 992.28235 151.48448 997.4177 155.67824 1001.37274 C 161.13556 1007.21 168.09544 1011.1506 175.3617 1014.3212 C 182.77876 1011.0969 189.89207 1007.02747 195.41862 1001.0362 C 200.39651 996.35834 203.71318 989.74677 203.61128 982.82446 C 203.71925 977.828 200.62424 972.54803 195.51913 971.45776 C 189.808 969.8762 184.02771 970.1568 178.1649 970.40076 C 178.1649 966.4353 178.1649 966.1548 178.1649 962.1894 C 181.61359 962.1894 184.77425 962.1894 188.22296 962.1894 C 188.22296 960.5212 188.31537 959.3163 188.31537 957.6481 C 180.4185 957.7037 170.97949 957.7037 162.4501 957.6481 Z"/>
            <g id="text3755-5" transform="matrix(0.9367271 0 0 1.0675468 0 0)">
                <path id="path899" fill="#000000" stroke="none" d="M 28.418243 706.77167 Q 28.418243 707.15826 28.270983 707.5264 Q 27.939651 707.7105 27.571499 707.7105 L 15.753885 707.7105 Q 14.391731 707.7105 14.391731 706.3299 Q 14.391731 706.109 14.428551 705.5568 Q 14.465361 705.0046 14.465361 704.71 Q 14.465361 704.0658 14.741473 703.8817 Q 14.943956 703.75287 15.64344 703.75287 L 20.245316 703.75287 L 20.245316 700.9181 L 9.918709 700.9181 Q 8.317257 700.9181 8.317257 699.4271 Q 8.317257 699.1693 8.372479 698.48834 Q 8.427702 697.7888 8.427702 697.3838 Q 8.427702 696.75806 9.145594 695.8192 L 19.785128 681.8295 Q 20.28213 681.1669 21.036837 681.1669 L 23.466627 681.1669 Q 24.33178 681.1669 24.33178 682.124 L 24.33178 697.1446 Q 24.99445 697.1446 25.841192 697.10785 Q 26.706348 697.071 26.945644 697.071 Q 27.939651 697.071 28.178947 697.568 Q 28.418243 698.0466 28.418243 699.96094 Q 28.418243 700.31067 28.363024 700.49475 Q 28.25258 700.91815 27.516281 700.91815 L 24.331781 700.91815 L 24.331781 703.75287 Q 25.01286 703.75287 25.878012 703.71606 Q 26.743166 703.67926 26.964054 703.67926 Q 28.013285 703.67926 28.234173 704.21313 Q 28.418247 704.65485 28.418247 706.7718 Z M 20.318945 687.0757 Q 19.306532 688.6219 12.845502 697.1446 L 20.245316 697.1446 Q 20.245316 696.16895 20.208494 693.79443 Q 20.153275 691.64075 20.171675 690.42584 Q 20.190084 688.58514 20.318935 687.0757 Z"/>
            </g>
            <g id="text3755-2-28" transform="matrix(-0.9367271 0 0 -1.0675468 0 0)">
                <path id="path902" fill="#000000" stroke="none" d="M -221.38771 -952.8504 Q -221.38771 -952.46387 -221.53497 -952.0957 Q -221.86632 -951.9117 -222.23447 -951.9117 L -234.05205 -951.9117 Q -235.41422 -951.9117 -235.41422 -953.29224 Q -235.41422 -953.51306 -235.37741 -954.0653 Q -235.34062 -954.61755 -235.34062 -954.9121 Q -235.34062 -955.55634 -235.0645 -955.7404 Q -234.86205 -955.86926 -234.16255 -955.86926 L -229.56067 -955.86926 L -229.56067 -958.70404 L -239.88728 -958.70404 Q -241.48874 -958.70404 -241.48874 -960.19495 Q -241.48874 -960.45276 -241.43353 -961.1338 Q -241.37833 -961.8333 -241.37833 -962.2383 Q -241.37833 -962.8642 -240.66045 -963.8029 L -230.02089 -977.7926 Q -229.52388 -978.45526 -228.7692 -978.45526 L -226.33942 -978.45526 Q -225.47426 -978.45526 -225.47426 -977.4981 L -225.47426 -962.4775 Q -224.81158 -962.4775 -223.96483 -962.51434 Q -223.09969 -962.55115 -222.8604 -962.55115 Q -221.8664 -962.55115 -221.62709 -962.05414 Q -221.3878 -961.57556 -221.3878 -959.6612 Q -221.3878 -959.31146 -221.443 -959.1274 Q -221.55344 -958.7039 -222.28973 -958.7039 L -225.47426 -958.7039 L -225.47426 -955.86926 Q -224.79317 -955.86926 -223.92801 -955.90607 Q -223.06285 -955.9428 -222.84196 -955.9428 Q -221.79276 -955.9428 -221.57185 -955.40894 Q -221.38777 -954.9672 -221.38777 -952.8504 Z M -229.48701 -972.54645 Q -230.49944 -971.00024 -236.96043 -962.4775 L -229.56065 -962.4775 Q -229.56065 -963.4532 -229.59744 -965.82776 Q -229.65265 -967.9814 -229.63425 -969.1962 Q -229.61584 -971.0371 -229.48698 -972.54645 Z"/>
            </g>
        </g>
    </g>
</svg>
